src/icons/add-text.svg

<svg xmlns="http://www.w3.org/2000/svg" width="24" height="24" fill="none"><path fill="currentColor" d="M19 3H3v16h11v2H1V1h20v13h-2z"/><path fill="currentColor" d="M21 16h-2v3h-3v2h3v3h2v-3h3v-2h-3zM5 6h12v2H5zm0 4h9v2H5zm9 4H5v2h9z"/></svg>

<svg width="24" height="24" viewBox="0 0 24 24" fill="none" xmlns="http://www.w3.org/2000/svg">
<path d="M19 3H3V19H14V21H1V1H21V14H19V3Z" fill="black"/>
<path d="M21 16H19V19H16V21H19V24H21V21H24V19H21V16Z" fill="black"/>
<path d="M5 6H17V8H5V6Z" fill="black"/>
<path d="M5 10H14V12H5V10Z" fill="black"/>
<path d="M14 14H5V16H14V14Z" fill="black"/>
</svg>
